assets/svg/1F43C.svg

<svg xmlns="http://www.w3.org/2000/svg" viewBox="0 0 64 64" enable-background="new 0 0 64 64"><path fill="#25333a" d="m4.269.678c3.205-2.01 4.861.752 7.2 4.474 2.341 3.724 4.478 6.994 1.274 9.01-3.214 2.02-7.712.635-10.05-3.085-2.339-3.72-1.637-8.377 1.577-10.396"/><path fill="#6c8e99" d="m5.04 2.6c2.607-1.639 3.954.611 5.856 3.639 1.905 3.03 3.643 5.688 1.036 7.327-2.613 1.645-6.271.516-8.174-2.51-1.902-3.03-1.331-6.813 1.282-8.456"/><path fill="#25333a" d="m58.802.678c-3.204-2.01-4.861.752-7.2 4.474-2.341 3.724-4.478 6.994-1.273 9.01 3.214 2.02 7.712.635 10.05-3.085s1.636-8.377-1.578-10.396"/><path fill="#6c8e99" d="m58.04 2.6c-2.607-1.639-3.954.611-5.857 3.639-1.904 3.03-3.643 5.688-1.035 7.327 2.612 1.645 6.271.516 8.174-2.51 1.902-3.03 1.33-6.813-1.282-8.456"/><path fill="#e7e6e6" d="m.021 31.795c0-20.473 14.38-30.03 32.12-30.03s32.12 9.557 32.12 30.03c0 20.469-14.38 29.529-32.12 29.529s-32.12-9.06-32.12-29.529"/><g fill="#25333a"><path d="m26.938 26.535c-1.341 5.777-5.837 9.66-10.04 8.684-4.214-.974-6.547-6.44-5.206-12.217 1.335-5.771 5.835-9.658 10.05-8.68 4.208.976 6.538 6.442 5.2 12.213"/><path d="m26.554 23.446c0 4.456-2.633 8.06-5.879 8.06-3.25 0-5.884-3.605-5.884-8.06 0-4.452 2.635-8.06 5.884-8.06 3.246 0 5.879 3.607 5.879 8.06"/></g><path fill="#6c8e99" d="m24.29 22.873c0 2.742-1.619 4.958-3.615 4.958-2 0-3.621-2.216-3.621-4.958 0-2.74 1.621-4.958 3.621-4.958 1.996 0 3.615 2.218 3.615 4.958"/><g fill="#25333a"><path d="m36.45 26.535c1.341 5.777 5.837 9.66 10.04 8.684 4.214-.974 6.547-6.44 5.206-12.217-1.336-5.771-5.835-9.658-10.05-8.68-4.208.976-6.537 6.442-5.199 12.213"/><path d="m36.835 23.446c0 4.456 2.633 8.06 5.878 8.06 3.25 0 5.885-3.605 5.885-8.06 0-4.452-2.635-8.06-5.885-8.06-3.245 0-5.878 3.607-5.878 8.06"/><path d="m48.661 23.446c0 4.456-2.633 8.06-5.878 8.06-3.25 0-5.885-3.605-5.885-8.06 0-4.452 2.635-8.06 5.885-8.06 3.245 0 5.878 3.607 5.878 8.06"/></g><path fill="#bcbdbf" d="m21.754 44.05c0-4.682 3.982-4.595 9.414-4.595 5.434 0 10.259-.087 10.259 4.595 0 4.687-4.406 8.481-9.837 8.481-5.429 0-9.836-3.795-9.836-8.481"/><path fill="#6c8e99" d="m45.792 22.873c0 2.742-1.618 4.958-3.614 4.958-2 0-3.621-2.216-3.621-4.958 0-2.74 1.621-4.958 3.621-4.958 1.996 0 3.614 2.218 3.614 4.958"/><path fill="#d1d2d3" d="m18.07 35.13c0-6.434 5.474-6.315 12.94-6.315 7.47 0 14.1-.119 14.1 6.315 0 6.442-6.06 11.66-13.521 11.66-7.465 0-13.522-5.218-13.522-11.66"/><path fill="#ed2e7c" d="m26.333 32.812c0-2.502 2.129-2.456 5.03-2.456 2.907 0 5.486-.046 5.486 2.456 0 2.506-2.355 4.533-5.26 4.533-2.902.0001-5.257-2.027-5.257-4.533"/></svg>

<?xml version="1.0" encoding="UTF-8" standalone="no"?>
<!-- Generator: Adobe Illustrator 16.0.0, SVG Export Plug-In . SVG Version: 6.00 Build 0)  -->

<svg
   xmlns:dc="http://purl.org/dc/elements/1.1/"
   xmlns:cc="http://creativecommons.org/ns#"
   xmlns:rdf="http://www.w3.org/1999/02/22-rdf-syntax-ns#"
   xmlns:svg="http://www.w3.org/2000/svg"
   xmlns="http://www.w3.org/2000/svg"
   xmlns:sodipodi="http://sodipodi.sourceforge.net/DTD/sodipodi-0.dtd"
   xmlns:inkscape="http://www.inkscape.org/namespaces/inkscape"
   version="1.1"
   id="Layer_1"
   x="0px"
   y="0px"
   width="64px"
   height="64px"
   viewBox="0 0 64 64"
   enable-background="new 0 0 64 64"
   xml:space="preserve"
   inkscape:version="0.48.5 r10040"
   sodipodi:docname="1F43C.svg"
   inkscape:export-filename="D:\TESTINGEMOJI\SVGTEST\1F43C.png"
   inkscape:export-xdpi="90"
   inkscape:export-ydpi="90"><metadata
   id="metadata4884"><rdf:RDF><cc:Work
       rdf:about=""><dc:format>image/svg+xml</dc:format><dc:type
         rdf:resource="http://purl.org/dc/dcmitype/StillImage" /><dc:title></dc:title></cc:Work></rdf:RDF></metadata><defs
   id="defs4882" /><sodipodi:namedview
   pagecolor="#ffffff"
   bordercolor="#666666"
   borderopacity="1"
   objecttolerance="10"
   gridtolerance="10"
   guidetolerance="10"
   inkscape:pageopacity="0"
   inkscape:pageshadow="2"
   inkscape:window-width="640"
   inkscape:window-height="480"
   id="namedview4880"
   showgrid="false"
   inkscape:zoom="3.6875"
   inkscape:cx="32"
   inkscape:cy="32"
   inkscape:window-x="588"
   inkscape:window-y="261"
   inkscape:window-maximized="0"
   inkscape:current-layer="Layer_1" />
<g
   id="g4846">
	<path
   fill="#25333A"
   d="M4.269,0.678c3.205-2.014,4.861,0.752,7.2,4.474c2.341,3.724,4.478,6.994,1.274,9.007   c-3.214,2.022-7.712,0.635-10.051-3.085C0.353,7.354,1.055,2.697,4.269,0.678z"
   id="path4848" />
	<path
   fill="#6C8E99"
   d="M5.035,2.6c2.607-1.639,3.954,0.611,5.856,3.639c1.905,3.029,3.643,5.688,1.036,7.327   c-2.613,1.645-6.271,0.516-8.174-2.51C1.851,8.03,2.422,4.243,5.035,2.6z"
   id="path4850" />
	<path
   fill="#25333A"
   d="M58.802,0.678c-3.204-2.014-4.861,0.752-7.2,4.474c-2.341,3.724-4.478,6.994-1.273,9.007   c3.214,2.022,7.712,0.635,10.051-3.085S62.016,2.697,58.802,0.678z"
   id="path4852" />
	<path
   fill="#6C8E99"
   d="M58.036,2.6c-2.607-1.639-3.954,0.611-5.857,3.639c-1.904,3.029-3.643,5.688-1.035,7.327   c2.612,1.645,6.271,0.516,8.174-2.51C61.22,8.03,60.648,4.243,58.036,2.6z"
   id="path4854" />
	<path
   fill="#E7E6E6"
   d="M0.021,31.795c0-20.473,14.38-30.03,32.125-30.03s32.125,9.557,32.125,30.03   c0,20.469-14.38,29.529-32.125,29.529S0.021,52.264,0.021,31.795z"
   id="path4856" />
	<path
   fill="#25333A"
   d="M26.938,26.535c-1.341,5.777-5.837,9.66-10.043,8.684c-4.214-0.974-6.547-6.44-5.206-12.217   c1.335-5.771,5.835-9.658,10.049-8.68C25.946,15.298,28.276,20.764,26.938,26.535z"
   id="path4858" />
	<path
   fill="#25333A"
   d="M26.554,23.446c0,4.456-2.633,8.061-5.879,8.061c-3.25,0-5.884-3.605-5.884-8.061   c0-4.452,2.635-8.059,5.884-8.059C23.921,15.387,26.554,18.994,26.554,23.446z"
   id="path4860" />
	<path
   fill="#6C8E99"
   d="M24.29,22.873c0,2.742-1.619,4.958-3.615,4.958c-2,0-3.621-2.216-3.621-4.958   c0-2.74,1.621-4.958,3.621-4.958C22.671,17.915,24.29,20.133,24.29,22.873z"
   id="path4862" />
	<g
   id="g4864">
		<path
   fill="#25333A"
   d="M36.45,26.535c1.341,5.777,5.837,9.66,10.043,8.684c4.214-0.974,6.547-6.44,5.206-12.217    c-1.336-5.771-5.835-9.658-10.05-8.68C37.441,15.298,35.112,20.764,36.45,26.535z"
   id="path4866" />
		<path
   fill="#25333A"
   d="M36.835,23.446c0,4.456,2.633,8.061,5.878,8.061c3.25,0,5.885-3.605,5.885-8.061    c0-4.452-2.635-8.059-5.885-8.059C39.468,15.387,36.835,18.994,36.835,23.446z"
   id="path4868" />
	</g>
	<path
   fill="#25333A"
   d="M48.661,23.446c0,4.456-2.633,8.061-5.878,8.061c-3.25,0-5.885-3.605-5.885-8.061   c0-4.452,2.635-8.059,5.885-8.059C46.028,15.387,48.661,18.994,48.661,23.446z"
   id="path4870" />
	<path
   fill="#BCBDBF"
   d="M21.754,44.054c0-4.682,3.982-4.595,9.414-4.595c5.434,0,10.259-0.087,10.259,4.595   c0,4.687-4.406,8.481-9.837,8.481C26.161,52.535,21.754,48.74,21.754,44.054z"
   id="path4872" />
	<path
   fill="#6C8E99"
   d="M45.792,22.873c0,2.742-1.618,4.958-3.614,4.958c-2,0-3.621-2.216-3.621-4.958   c0-2.74,1.621-4.958,3.621-4.958C44.174,17.915,45.792,20.133,45.792,22.873z"
   id="path4874" />
	<path
   fill="#D1D2D3"
   d="M18.07,35.134c0-6.434,5.474-6.315,12.94-6.315c7.47,0,14.103-0.119,14.103,6.315   c0,6.442-6.056,11.66-13.521,11.66C24.127,46.794,18.07,41.576,18.07,35.134z"
   id="path4876" />
	<path
   fill="#ED2E7C"
   d="M26.333,32.812c0-2.502,2.129-2.456,5.031-2.456c2.907,0,5.486-0.046,5.486,2.456   c0,2.506-2.355,4.533-5.26,4.533C28.688,37.346,26.333,35.318,26.333,32.812z"
   id="path4878" />
</g>
</svg>
